assets/icons/hide-filled.svg

<?xml version="1.0" encoding="UTF-8" standalone="no"?>
<svg
   viewBox="0 0 24 24"
   width="24"
   height="24"
   version="1.1"
   id="svg854"
   sodipodi:docname="hide-filled.svg"
   inkscape:version="1.2 (1:1.2.1+202207142221+cd75a1ee6d)"
   xmlns:inkscape="http://www.inkscape.org/namespaces/inkscape"
   xmlns:sodipodi="http://sodipodi.sourceforge.net/DTD/sodipodi-0.dtd"
   xmlns="http://www.w3.org/2000/svg"
   xmlns:svg="http://www.w3.org/2000/svg"
   xmlns:rdf="http://www.w3.org/1999/02/22-rdf-syntax-ns#"
   xmlns:cc="http://creativecommons.org/ns#"
   xmlns:dc="http://purl.org/dc/elements/1.1/">
  <metadata
     id="metadata860">
    <rdf:RDF>
      <cc:Work
         rdf:about="">
        <dc:format>image/svg+xml</dc:format>
        <dc:type
           rdf:resource="http://purl.org/dc/dcmitype/StillImage" />
      </cc:Work>
    </rdf:RDF>
  </metadata>
  <defs
     id="defs858" />
  <sodipodi:namedview
     pagecolor="#ffffff"
     bordercolor="#666666"
     borderopacity="1"
     objecttolerance="10"
     gridtolerance="10"
     guidetolerance="10"
     inkscape:pageopacity="0"
     inkscape:pageshadow="2"
     inkscape:window-width="1920"
     inkscape:window-height="1043"
     id="namedview856"
     showgrid="false"
     inkscape:zoom="22.627417"
     inkscape:cx="6.9826795"
     inkscape:cy="8.3085047"
     inkscape:window-x="0"
     inkscape:window-y="0"
     inkscape:window-maximized="1"
     inkscape:current-layer="svg854"
     inkscape:document-rotation="0"
     inkscape:pagecheckerboard="0"
     inkscape:snap-page="true"
     inkscape:showpageshadow="2"
     inkscape:deskcolor="#d1d1d1">
    <inkscape:grid
       type="xygrid"
       id="grid1429" />
  </sodipodi:namedview>
  <path
     id="path953-3"
     style="color:#000000;fill:#808080;fill-opacity:1;-inkscape-stroke:none"
     d="M 19.646484 3.6464844 L 17.082031 6.2109375 C 15.722612 5.4434099 14.044917 4.9101562 12.001953 4.9101562 C 4.6924513 4.9101562 2.0332031 11.730469 2.0332031 11.730469 L 1.9667969 11.910156 L 2.0332031 12.089844 C 2.0332031 12.089844 3.2144121 15.112203 6.1601562 17.132812 L 3.6464844 19.646484 L 4.3535156 20.353516 L 7.0351562 17.671875 L 8.9023438 15.804688 L 9.609375 15.097656 L 10.328125 14.378906 L 12.353516 12.353516 L 12.927734 11.779297 L 15.199219 9.5078125 L 15.910156 8.796875 L 17.949219 6.7578125 L 20.353516 4.3535156 L 19.646484 3.6464844 z M 12.001953 6.9101562 A 5 5 0 0 1 15.207031 8.0859375 L 14.492188 8.8007812 A 4 4 0 0 0 12.001953 7.9101562 A 4 4 0 0 0 8 11.910156 A 4 4 0 0 0 8.9003906 14.392578 L 8.1894531 15.103516 A 5 5 0 0 1 7 11.910156 A 5 5 0 0 1 12.001953 6.9101562 z M 18.744141 7.3769531 L 16.462891 9.6582031 A 5 5 0 0 1 17 11.910156 A 5 5 0 0 1 12.001953 16.910156 A 5 5 0 0 1 9.7636719 16.357422 L 7.9902344 18.130859 C 9.1345708 18.607362 10.464579 18.910156 12.001953 18.910156 C 19.311455 18.910156 21.966797 12.089844 21.966797 12.089844 L 22.037109 11.910156 L 21.966797 11.730469 C 21.966797 11.730469 21.032208 9.3298914 18.744141 7.3769531 z M 12.001953 8.9101562 A 3 3 0 0 1 12.882812 9.0429688 A 1.5 1.5 0 0 0 12.001953 10.410156 A 1.5 1.5 0 0 0 12.193359 11.099609 L 11.646484 11.646484 L 9.6171875 13.675781 A 3 3 0 0 1 9 11.910156 A 3 3 0 0 1 12.001953 8.9101562 z M 15.707031 10.414062 L 14.917969 11.203125 A 3 3 0 0 1 15.001953 11.910156 A 3 3 0 0 1 12.001953 14.910156 A 3 3 0 0 1 11.298828 14.822266 L 10.505859 15.615234 A 4 4 0 0 0 12.001953 15.910156 A 4 4 0 0 0 16 11.910156 A 4 4 0 0 0 15.707031 10.414062 z " />
</svg>

<svg width="24" height="24" xmlns="http://www.w3.org/2000/svg"><path style="color:#000;fill:gray;fill-opacity:1;-inkscape-stroke:none" d="m19.646 3.646-2.564 2.565c-1.36-.768-3.037-1.3-5.08-1.3-7.31 0-9.969 6.82-9.969 6.82l-.066.18.066.179s1.181 3.022 4.127 5.043l-2.514 2.513.708.708 2.681-2.682 1.867-1.867.707-.707.72-.72 2.025-2.024.574-.575 2.271-2.271.711-.711 2.04-2.04 2.404-2.403-.708-.708zM12.002 6.91a5 5 0 0 1 3.205 1.176l-.715.715a4 4 0 0 0-2.49-.89 4 4 0 0 0-4.002 4 4 4 0 0 0 .9 2.482l-.71.71A5 5 0 0 1 7 11.91a5 5 0 0 1 5.002-5zm6.742.467-2.281 2.281A5 5 0 0 1 17 11.91a5 5 0 0 1-4.998 5 5 5 0 0 1-2.238-.553L7.99 18.131c1.145.476 2.475.78 4.012.78 7.31 0 9.965-6.821 9.965-6.821l.07-.18-.07-.18s-.935-2.4-3.223-4.353zM12.002 8.91a3 3 0 0 1 .88.133 1.5 1.5 0 0 0-.88 1.367 1.5 1.5 0 0 0 .191.69l-.547.546-2.029 2.03A3 3 0 0 1 9 11.91a3 3 0 0 1 3.002-3zm3.705 1.504-.789.79a3 3 0 0 1 .084.706 3 3 0 0 1-3 3 3 3 0 0 1-.703-.088l-.793.793a4 4 0 0 0 1.496.295 4 4 0 0 0 3.998-4 4 4 0 0 0-.293-1.496z"/></svg>
